X: 21967
T: Kitty Lie Over
R: jig
M: 6/8
K: Dmajor
|:B|AFD DFA|BdB BAF|ABA ~F2D|GFG E2B|
AFD DFA|BdB BAF|ABA ~F2E|1 FDD D2:|2 FDD D2e||
|:fdd dcd|fdd ~d2e|fef def|gfg eag|
fed B2d|A2d ~F2G|ABA F2E|1 FDD D2e:|2 FDD D2||

